X: 1
T: Merry Lads of Glasgow
P: Buffalo Girls (or Buffalo Gal)
C: from Pete Seeger song book
C: arr. T. Traub 8-21-2014
R: Reel
K: A
M: 4/4
L: 1/4
|: E|"A"A A c e|"D"f e "A"c2|"E"e d B2|"A"f e c>e|"A"A A c e|"D"f e "A"c2|"E"e e d B| "A"A2 A :|
|: e|"D"a a g f|"A"f e c2|"E"e d B2|"A"f e c>e|"D"a a g f|"A"f e c>c|"E"e e d B |"A"A2 A :|
